svg/furkot/mapbox-maki/place_of_worship.svg

<svg viewBox="0 0 512 512" xmlns="http://www.w3.org/2000/svg"><path d="m256 0-78.769 78.769v78.77h157.538v-78.77zm-78.769 177.231-59.077 59.077h275.692l-59.077-59.077zm-137.846 78.769c-21.753 0-39.385 17.634-39.385 39.385v216.615h78.769v-216.615c0-21.751-17.631-39.385-39.384-39.385zm78.769 0v256h275.692v-256zm354.461 0c-21.751 0-39.385 17.634-39.385 39.385v216.615h78.77v-216.615c0-21.751-17.632-39.385-39.385-39.385z"/></svg>

<svg viewBox="0 0 512 512" xmlns="http://www.w3.org/2000/svg"><path d="M 256 0 L 177.231 78.769 L 177.231 157.539 L 334.769 157.539 L 334.769 78.769 L 256 0 Z M 177.231 177.231 L 118.154 236.308 L 393.846 236.308 L 334.769 177.231 L 177.231 177.231 Z M 39.385 256 C 17.632 256 0 273.634 0 295.385 L 0 512 L 78.769 512 L 78.769 295.385 C 78.769 273.634 61.138 256 39.385 256 Z M 118.154 256 L 118.154 512 L 393.846 512 L 393.846 256 L 118.154 256 Z M 472.615 256 C 450.864 256 433.23 273.634 433.23 295.385 L 433.23 512 L 512 512 L 512 295.385 C 512 273.634 494.368 256 472.615 256 Z"/></svg>
